X:3419
T:Brudmarsch efter Majström
C:Per Majström 1816-1904
R:Marsch
O:Bergsjö, Hälsingland
N:Den här versionen finns efter Lars-Erik Forslin, Älgered, via Helge Nilsson, som ledde Bergsjöbygdens spelmanslag. Stämman är min. // Håkan
Z:Håkan Lidén, 2015-04-15
M:2/4
L:1/8
K:Am
V:1
E | A>B A/^G/A/B/ | cB A^G | A2 A>A | A3 c | e>^f e/^d/e/f/ | 
g^f e^d | e2 e>g | e3 y :: e | a>b a/^g/a/b/ | a=g fd | 
g>a g/^f/g/a/ | g=f ed | e>d c/B/c/d/ | c/B/A/^G/ A/B/c/d/ | ee E/^G/B/G/ | 
A2 e>^c | A3 :| B/d/ | c>d c/B/c/d/ | cB Ac | B>c B/A/B/c/ | B^G AB |
A^G/A/ BA/B/ | cB/c/ dc/d/ | e>f e/d/e/f/ | e3 B/d/ | c>d c/B/c/d/ | 
cB Ac | B>c B/A/B/c/ | B^G AB | A^G/A/ BA/B/ | cB/c/ dc/d/ | 
e>f e/d/e/f/ | e3 |: e | a>b a/^g/a/b/ | a=g fd | g>a g/^f/g/a/ | 
g=f ed | e>d c/B/c/d/ | c/B/A/^G/ A/B/c/d/ | ee E/^G/B/G/ | A2 e>^c | A3 :|]
V:2
E | C>D C/B,/C/D/ | ED CB, | C2 C>C | C3 E | G>A G/^F/G/A/ | 
BA G^F | G2 G>B | G3 y :: c | f>g f/e/f/g/ | fe dB | 
e>f e/d/e/f/ | ed cB | c>B A/^G/A/B/ | A/E/C/B,/ C/D/E/^F/ | ^GG B,D/B,/ | 
^C2 A>E | ^C3 :| ^G/B/ | A>B A/^G/A/B/ | A^G ^FA | ^G>A G/^F/G/A/ | ^GB, ED |
CB,/C/ DC/D/ | ED/E/ ^FE/F/ | ^G>A G/^F/G/A/ | ^G3 ^G/B/ | A>B A/^G/A/B/ | 
A^G ^FA | ^G>A G/^F/G/A/ | ^GB, ED | CB,/C/ DF/G/ | EG/A/ BA/B/ | 
c>d c/B/c/d/ | c3 |: c |  f>g f/e/f/g/ | fe dB | e>f e/d/e/f/ | 
ed cB | c>B A/^G/A/B/ | A/E/C/B,/ C/D/E/^F/ | ^GG B,D/B,/ | ^C2 A>E | ^C3 :|]
(:musicend:)
(Det ser ut som om inte hela kommer med på sidan, men pdf:en innehåller även den sista raden. // HL)
(:music:)
